X:52
M:C|
L:1/8
K:A Minor
g|e/f/g ce ecge|BGdG Bcdf|ecgc egca|gede cAAg|agea gced|cAGc EcGc|

